X: 15628
T: Goblachan
R: polka
M: 2/4
K: Dmajor
FA FA|dB B/c/B/A/|FA FA|dB A2|
FA FA|dB B/c/B/A/|B/d/B/A/ GE|ED D2:|
dB B/c/B/A/|FA BA|dB B/c/B/A/|FA E2|
dB B/c/B/A/|FA BA|B/c/B/A/ GE|ED D2:|

